!!!!SEGMENT: pl-kozmzk--mzk-m-346--011_walczynski-franciszek--cantantibus-organis-lento.krn
!!!cenid: 18xx:2806
!!!COM: Walczyński, Franciszek
!!!COM-rismid: pe30021989
!!!CDT: ~1852-1937
!!!CNT: Polish
!!!GTL: Cantantibus organis op. 10
!!!OTL: 11. Lento
!!!PDT: 1898
!!!AGN: Secular
!!!SMS-siglum: PL-KOZmzk
!!!SMS-shelfmark: mzk/m/346
!!!SMS-shelfwork: 011 G
!!!SMS-variant:
!!!SMS-altvar:
!!!NIFC-rismid: 1001109079
!!!URL-scan: https://repozytorium.nifc.pl/islandora/object/pl-kozmzk%3A7453/datastream/PDF/view
!!!ONB-nifc:
!!!OMD: Lento.
!!!AIN: 1 empty 1 organ
!!!key:
**kern	**kern	**dynam
*part2	*part1	*part1
*staff2	*staff1	*
*Iorgan	*Iempty	*
*I"[Organo]	*	*
*clefF4	*clefG2	*
*k[f#]	*k[f#]	*
*e:	*e:	*
*M3/4	*M3/4	*
=1	=1	=1
*^	*^	*
!	!	!LO:TX:b:t=11.	!	!
(4E/	2.r	2.r	2.r	p
4F#/	.	.	.	.
4BB/	.	.	.	.
=2	=2	=2	=2	=2
4E/	2.r	2.r	(4g\	.
4F#/	.	.	4a\	.
8B/L	.	.	4f#\	.
8A/J)	.	.	.	.
=3	=3	=3	=3	=3
!	!	!	!	!LO:DY:a
(4G/	4r	(4b/	2.e\	f
[2A/	4r	4cc/	.	.
!LO:TX:b:i:t=Ped.	!	!	!	!LO:DY:b=2:rj
.	8C\L	8a/L	.	p
.	8C#X\J	8g/J	.	.
=4	=4	=4	=4	=4
4.A/]	2.D\	4.f#/	2.d\)	.
8G/	.	8e/	.	.
4F#/)	.	4d/)	.	.
=5	=5	=5	=5	=5
(4G/	2.r	2.r	2.r	p
4A/	.	.	.	.
4D/	.	.	.	.
=6	=6	=6	=6	=6
4G/	2.r	2.r	(4b\	.
4A/	.	.	4cc\	.
8d/L	.	.	4a\	.
8c/J)	.	.	.	.
=7	=7	=7	=7	=7
!	!	!	!	!LO:DY:a
(4B/	4r	(4dd/	2.g\)	f
4c/	4r	4ee/	.	.
!LO:TX:b:i:t=Ped.	!	!	!	!LO:DY:b=2:rj
[4e/	4A\	4cc/	.	f
=8	=8	=8	=8	=8
4e/]	2.B;\	2.b;/)	2.f#\	.
8d#X/L	.	.	.	.
8c#X/J	.	.	.	.
4d#;/)	.	.	.	.
=9	=9	=9	=9	=9
!	!	!	!	!LO:DY:a
2.r	2.r	(4b/	2.r	p
.	.	4cc#X/	.	.
.	.	4f#/	.	.
=10	=10	=10	=10	=10
(4B/	2.r	4dd#X/	2.f#\	.
4c#X/	.	4ee/	.	.
4e/	.	4cc#X/)	.	.
!!LO:PB:g=original
=11	=11	=11	=11	=11
!	!	!	!	!LO:DY:a
4d#X/	2.r	(4ff#/	[2.b\	f
4e/	.	4ggn/	.	.
4gn/)	.	4ee/	.	.
=12	=12	=12	=12	=12
4f#/	4r	4ddn/	4b\]	.
4e/	4r	4ccn/	([2g\	.
!LO:TX:b:i:t=Ped.	!	!	!	!LO:DY:b=2:rj
4e/	(4cn\	4a/)	.	f
=13	=13	=13	=13	=13
(4d/	4d\	(4b/	2g\]	.
2cn/	4D\	2a/	.	.
.	4D#X\	.	4f#\	.
=14	=14	=14	=14	=14
2.B/)	4.E\	2.g/)	2.e\)	.
.	8Dn\L	.	.	.
.	8C\	.	.	.
.	8BB\J)	.	.	.
=15	=15	=15	=15	=15
2.cn/	(2.AA\	(4.f#/	[2.e\	pp
.	.	8g/	.	.
.	.	4a/	.	.
=16	=16	=16	=16	=16
(2B/	(2.BB\)	2g/	2e\]	.
4A/	.	4f#/	4d#X\	.
=17	=17	=17	=17	=17
4.G/)	4.C\)	4.e/)	4.e\	.
!	!	!	!	!LO:DY:a
!	!	!	!	!LO:HP:a
8rA	8rFF	(8d#X/	8r	pp <
4rA	4rFF	8e/L	4r	.
.	.	8g/J	.	[[
=18	=18	=18	=18	=18
4r	4ryy	2.b/	4r	.
4r	4ryy	.	4r	.
!LO:TX:b:i:t=Ped.	!	!	!	!LO:DY:b=2:rj
(4A/	(4BB\	.	(4d#X\	pp
=19	=19	=19	=19	=19
2.G/)	2.E\)	2.e/)	2.B\)	.
=20	=20	=20	=20	=20
!	!	!	!	!LO:DY:b=2
2.rc	(4E\	2.r	2.r	p
.	4F#\	.	.	.
.	4BB\)	.	.	.
=21	=21	=21	=21	=21
!	!	!	!	!LO:DY:rj
4G/	4C'\	(2e/	2.c\	pp >
2A/	4AA'\	.	.	.
.	4FF#'\	4e~/	.	.
=22	=22	=22	=22	=22
2.G/	2.EE;\	2.e;/)	2.B\	]]
*v	*v	*	*	*
*	*v	*v	*
==	==	==
*-	*-	*-
!!!system-decoration: {(s1,s2)}
!!!EED: Andrzej Borzym
!!!EEV: 2021-08-09
!!!ENC: Krzysztof Stępień
!!!END: 2021-07-27
